img/svg/net/otter.svg

<?xml version="1.0" encoding="iso-8859-1"?>
<!-- Generator: Adobe Illustrator 21.0.2, SVG Export Plug-In . SVG Version: 6.00 Build 0)  -->
<svg version="1.1" id="&#x56FE;&#x5C42;_1" xmlns="http://www.w3.org/2000/svg" xmlns:xlink="http://www.w3.org/1999/xlink" x="0px"
	 y="0px" viewBox="0 0 16 16" style="enable-background:new 0 0 16 16;" xml:space="preserve">
<path d="M14.366,4.964c-0.419-0.928-1.035-1.73-1.831-2.385c-1.257-1.03-2.79-1.552-4.555-1.552c-1.916,0-3.546,0.582-4.845,1.731
	C1.718,4.018,1,5.758,1,7.93c0,2.079,0.676,3.849,1.955,5.119c1.28,1.271,3.068,1.942,5.168,1.942c1.747,0,3.402-0.622,4.66-1.751
	C14.233,11.947,15,10.152,15,8.049C15,6.933,14.787,5.895,14.366,4.964z M10.775,12.354c-0.033-0.094-0.066-0.186-0.104-0.303
	c-0.107-0.332-0.856-1.483-1.017-1.824C9.59,10.076,9.524,9.659,9.677,9.495c0.457-0.265,1.245-0.28,1.428-1.354
	c0.01-0.062-0.171-0.699-0.211-0.81c0.392-0.382,0.342-1.084,0.226-1.439c-0.054-0.167-0.144-0.29-0.27-0.377
	c0.026-0.147-0.067-0.259-0.348-0.289c-0.025-0.003-0.364-0.02-0.391-0.022C9.276,5.233,8.783,5.377,8.596,5.509
	c-0.03,0.008-0.059,0.018-0.085,0.03C8.154,5.345,7.61,5.277,7.18,5.277c-1.079,0-1.825,0.65-2.202,1.626
	C4.685,6.91,4.214,7.089,4.063,7.325C3.813,7.78,4.278,8.272,4.749,8.328c-0.159,0.966-0.543,2.054,0.096,3.414
	c0.045,0.097,0.092,0.193,0.137,0.291c-0.697-0.957-1.165-2.306-1.165-4.064c0-3.294,1.728-5.594,4.203-5.594
	c1.12,0,2.15,0.532,2.9,1.499c0.812,1.046,1.241,2.51,1.241,4.233C12.162,9.998,11.6,11.415,10.775,12.354z"/>
</svg>

<svg xmlns="http://www.w3.org/2000/svg" viewBox="0 0 16 16"><title>otter</title><path d="M14.37,5a6.57,6.57,0,0,0-1.83-2.39A7,7,0,0,0,8,1,7.08,7.08,0,0,0,3.13,2.76,6.6,6.6,0,0,0,1,7.93,7,7,0,0,0,3,13,7.14,7.14,0,0,0,8.12,15a7,7,0,0,0,4.66-1.75A6.74,6.74,0,0,0,15,8,7.44,7.44,0,0,0,14.37,5Zm-3.59,7.39-.1-.3c-.11-.33-.86-1.48-1-1.82-.06-.15-.13-.57,0-.73.46-.27,1.25-.28,1.43-1.35a6.25,6.25,0,0,0-.21-.81,1.51,1.51,0,0,0,.23-1.44.7.7,0,0,0-.27-.38c0-.15-.07-.26-.35-.29l-.39,0a3.23,3.23,0,0,0-1.51.3l-.09,0a3,3,0,0,0-1.33-.26A2.3,2.3,0,0,0,5,6.9a1.32,1.32,0,0,0-.91.42c-.25.45.22.95.69,1a5.05,5.05,0,0,0,.1,3.41L5,12A6.79,6.79,0,0,1,3.82,8c0-3.29,1.73-5.59,4.2-5.59a3.64,3.64,0,0,1,2.9,1.5,6.84,6.84,0,0,1,1.24,4.23A6.3,6.3,0,0,1,10.78,12.35Z"/></svg>
